X:1
T:J.S. Bach: Chaconne (Arpeggio section)
I:vn
K:C
M:3/4
L:1/4
[D2F2a2] | [D2E2g2] [E^cg] | [D2D2f2] [DAf] | [G,/2_B/2e/2][G,/A/2f/2] \
[G,/G/2e/2][G,/F/2d/2][A,/E/2d/2][A,/E/2^c/2] | [DFd][A,Fd][_B,Fd] | 
[C^F_e][_B,^F_e][A,^F_e] | [_B,Gd] [A,Fd] [G,Ed] | [A,Fd] [A,Ed] [A,G^c]
[DFd][DFA][DF_B] | [D^Fc][D^F_B][D^FA] | [DG_B][E^c_b][Fda]





